X: 22816
T: Lansdowne Lass, The
R: reel
M: 4/4
K: Gmajor
|:GA|B2eB dBAc|B2GB AGEG|DGGF GA (3Bcd|egdB ADGA|
B2ge dBAc|B2GB AGEG|DGGF GA (3Bcd|egdB G2:|
|:BG G2 dG G2|gdeg dG G2|GFGA B3d|eaag a2ga|
bgab ge e2|gdeg dG G2|G2EG DGeg|dBAB G2:|

